usr/share/icons/biglinux-icons-material/scalable/places/purple-folder-music.svg

<?xml version="1.0" encoding="UTF-8" standalone="no"?>
<svg
   width="24"
   height="24"
   viewBox="0 0 24 24"
   fill="none"
   version="1.1"
   id="svg17"
   sodipodi:docname="purple-folder-music.svg"
   inkscape:version="1.3 (0e150ed6c4, 2023-07-21)"
   xmlns:inkscape="http://www.inkscape.org/namespaces/inkscape"
   xmlns:sodipodi="http://sodipodi.sourceforge.net/DTD/sodipodi-0.dtd"
   xmlns="http://www.w3.org/2000/svg"
   xmlns:svg="http://www.w3.org/2000/svg">
  <sodipodi:namedview
     id="namedview17"
     pagecolor="#ffffff"
     bordercolor="#000000"
     borderopacity="0.25"
     inkscape:showpageshadow="2"
     inkscape:pageopacity="0.0"
     inkscape:pagecheckerboard="0"
     inkscape:deskcolor="#d1d1d1"
     inkscape:zoom="16.895833"
     inkscape:cx="18.140568"
     inkscape:cy="14.53021"
     inkscape:window-width="1280"
     inkscape:window-height="998"
     inkscape:window-x="640"
     inkscape:window-y="0"
     inkscape:window-maximized="0"
     inkscape:current-layer="svg17" />
  <rect
     opacity="0.8125"
     x="1"
     y="1"
     width="22"
     height="22"
     rx="6.6"
     fill="url(#paint0_linear_201_78)"
     id="rect1" />
  <rect
     opacity="0.125"
     x="3"
     y="2.25"
     width="18"
     height="18"
     rx="4.4"
     fill="url(#paint1_linear_201_78)"
     fill-opacity="0.875"
     id="rect2" />
  <rect
     x="3.25"
     y="3.25"
     width="17.5"
     height="17.5"
     rx="4.15"
     fill="#CCCCCC"
     stroke="url(#paint2_linear_201_78)"
     stroke-width="0.5"
     id="rect3" />
  <path
     opacity="0.125"
     d="M1 7.50781C1 5.84664 2.34664 4.5 4.00781 4.5H8.19048C9.265 4.5 10.3068 4.86994 11.1406 5.54762V5.54762C11.9745 6.2253 13.0162 6.59524 14.0908 6.59524H19.9922C21.6534 6.59524 23 7.94188 23 9.60305V15.5C23 19.1451 20.0451 22.1 16.4 22.1H7.6C3.95492 22.1 1 19.1451 1 15.5V7.50781Z"
     fill="url(#paint3_linear_201_78)"
     fill-opacity="0.875"
     id="path3" />
  <g
     opacity="0.875"
     id="g5">
    <path
       d="M1 8.40781C1 6.74664 2.34664 5.4 4.00781 5.4H8.19048C9.265 5.4 10.3068 5.76994 11.1406 6.44762V6.44762C11.9745 7.1253 13.0162 7.49524 14.0908 7.49524H19.9922C21.6534 7.49524 23 8.84188 23 10.5031V16.4C23 20.0451 20.0451 23 16.4 23H7.6C3.95492 23 1 20.0451 1 16.4V8.40781Z"
       fill="url(#paint4_linear_201_78)"
       id="path4" />
    <path
       d="M22.625 10.5031V16.4C22.625 19.838 19.838 22.625 16.4 22.625H7.6C4.16203 22.625 1.375 19.838 1.375 16.4V8.40781C1.375 6.95375 2.55375 5.775 4.00781 5.775H8.19048C9.17886 5.775 10.1371 6.11528 10.9041 6.73863C11.8048 7.47064 12.9301 7.87024 14.0908 7.87024H19.9922C21.4462 7.87024 22.625 9.04899 22.625 10.5031Z"
       stroke="url(#paint5_linear_201_78)"
       stroke-opacity="0.375"
       stroke-width="0.75"
       stroke-linejoin="round"
       id="path5" />
  </g>
  <defs
     id="defs17">
    <linearGradient
       id="paint0_linear_201_78"
       x1="23"
       y1="0.999999"
       x2="1"
       y2="12"
       gradientUnits="userSpaceOnUse">
      <stop
         stop-color="#5361CB"
         id="stop5" />
      <stop
         offset="1"
         stop-color="#2F3B9D"
         id="stop6" />
    </linearGradient>
    <linearGradient
       id="paint1_linear_201_78"
       x1="21"
       y1="4"
       x2="3"
       y2="4"
       gradientUnits="userSpaceOnUse">
      <stop
         stop-opacity="0.5"
         id="stop7" />
      <stop
         offset="0.890123"
         id="stop8" />
      <stop
         offset="1"
         stop-opacity="0"
         id="stop9" />
    </linearGradient>
    <linearGradient
       id="paint2_linear_201_78"
       x1="12"
       y1="3"
       x2="11.5"
       y2="8"
       gradientUnits="userSpaceOnUse">
      <stop
         stop-color="#DDDDDD"
         id="stop10" />
      <stop
         offset="1"
         stop-color="#CCCCCC"
         stop-opacity="0"
         id="stop11" />
    </linearGradient>
    <linearGradient
       id="paint3_linear_201_78"
       x1="23"
       y1="9"
       x2="1.01236"
       y2="9.52141"
       gradientUnits="userSpaceOnUse">
      <stop
         stop-opacity="0.5"
         id="stop12" />
      <stop
         offset="1"
         id="stop13" />
    </linearGradient>
    <linearGradient
       id="paint4_linear_201_78"
       x1="23"
       y1="5.4"
       x2="1.42949"
       y2="23.5115"
       gradientUnits="userSpaceOnUse">
      <stop
         stop-color="#6C7AD8"
         id="stop14" />
      <stop
         offset="1"
         stop-color="#273182"
         id="stop15" />
    </linearGradient>
    <linearGradient
       id="paint5_linear_201_78"
       x1="15"
       y1="5.5"
       x2="5.5"
       y2="19.5"
       gradientUnits="userSpaceOnUse">
      <stop
         stop-color="#97A5FF"
         id="stop16" />
      <stop
         offset="1"
         stop-color="#141E6F"
         id="stop17" />
    </linearGradient>
    <linearGradient
       id="a"
       x1="-240.47"
       x2="-240.47"
       y1="-60.605"
       y2="-29.025999"
       gradientTransform="matrix(0.96667,0,0,0.95,262.45,67.575)"
       gradientUnits="userSpaceOnUse">
      <stop
         stop-color="#4285db"
         offset="0"
         id="stop13351" />
      <stop
         stop-color="#42b9db"
         offset="1"
         id="stop13353" />
    </linearGradient>
    <linearGradient
       id="b"
       x1="10.583"
       x2="225.69"
       y1="-184.67999"
       y2="-184.67999"
       gradientTransform="matrix(0.11417,0,0,0.11417,18.557,59.5)"
       gradientUnits="userSpaceOnUse">
      <stop
         stop-color="#fafbfb"
         offset="0"
         id="stop13356" />
      <stop
         stop-color="#fafbfb"
         stop-opacity="0"
         offset="1"
         id="stop13358" />
    </linearGradient>
    <linearGradient
       id="c"
       x1="520"
       x2="410"
       y1="-620"
       y2="-620"
       gradientTransform="matrix(0.0302,0,0,0.0302,18.557,59.5)"
       gradientUnits="userSpaceOnUse">
      <stop
         offset="0"
         id="stop13361" />
      <stop
         stop-opacity="0"
         offset="1"
         id="stop13363" />
    </linearGradient>
    <linearGradient
       id="paint7_linear_207_95"
       x1="16.674999"
       y1="9"
       x2="8.2859201"
       y2="19.754999"
       gradientUnits="userSpaceOnUse"
       gradientTransform="translate(-0.46609738)">
      <stop
         stop-color="#0BB1CB"
         id="stop30" />
      <stop
         offset="1"
         stop-color="#006599"
         id="stop31" />
    </linearGradient>
    <linearGradient
       id="paint6_linear_207_44"
       x1="18.439199"
       y1="8.1073503"
       x2="9.3879299"
       y2="21.114599"
       gradientUnits="userSpaceOnUse"
       gradientTransform="matrix(0.93303702,0,0,0.93303702,0.84038255,0.56918821)">
      <stop
         stop-color="#E996B1"
         id="stop20" />
      <stop
         offset="1"
         stop-color="#BC546F"
         id="stop21" />
    </linearGradient>
    <clipPath
       clipPathUnits="userSpaceOnUse"
       id="clipPath28-9">
      <path
         d="M 0,0 H 19 V 19 H 0 Z"
         id="path28-3" />
    </clipPath>
    <linearGradient
       x1="18.439199"
       y1="8.1073503"
       x2="9.3879299"
       y2="21.114599"
       gradientUnits="userSpaceOnUse"
       gradientTransform="matrix(0.93303731,0,0,0.93303731,34.840383,0.86511865)"
       spreadMethod="pad"
       id="linearGradient30">
      <stop
         style="stop-opacity:1;stop-color:#e996b1"
         offset="0"
         id="stop29" />
      <stop
         style="stop-opacity:1;stop-color:#bc546f"
         offset="1"
         id="stop30-5" />
    </linearGradient>
  </defs>
  <g
     id="g2"
     transform="translate(-33.768)">
    <g
       opacity="0.15"
       id="g29"
       transform="translate(34)">
      <path
         d="m 8.781,7.352 2,-0.372 c 0.27,-0.05 0.524,0.157 0.524,0.434 v 1.32 c 0,0.211 -0.153,0.395 -0.364,0.434 L 9.211,9.496 C 9.008,9.531 8.973,9.57 8.973,9.777 v 3.774 c 0,1.215 -1.004,1.672 -1.672,1.672 C 6.543,15.223 6,14.77 6,14.125 6,13.492 6.426,13.059 7.344,12.887 L 8.059,12.746 C 8.242,12.715 8.336,12.59 8.336,12.398 L 8.309,7.812 c 0,-0.25 0.168,-0.398 0.472,-0.46 z"
         style="fill:#1a1a1a;fill-opacity:1;fill-rule:evenodd;stroke:none"
         transform="scale(1.3333333)"
         clip-path="url(#clipPath28-9)"
         id="path29" />
    </g>
    <path
       id="path30"
       d="m 46.172,9.3026664 2.666666,-0.496 c 0.364,-0.066667 0.697334,0.2093334 0.697334,0.5786667 v 1.7599999 c 0,0.281333 -0.202667,0.526667 -0.478667,0.578667 l -2.312,0.437333 C 46.478666,12.208 46.426666,12.26 46.426666,12.536 v 5.032 c 0,1.62 -1.338666,2.229333 -2.224,2.229333 -1.014666,0 -1.738666,-0.604 -1.738666,-1.464 0,-0.844 0.566666,-1.421333 1.790666,-1.650667 l 0.953334,-0.188 c 0.245333,-0.04133 0.370666,-0.208 0.370666,-0.464 l -0.03733,-6.1133329 c 0,-0.3333333 0.224,-0.532 0.630667,-0.6146667 z"
       style="fill:url(#linearGradient30);fill-rule:evenodd;stroke:none;stroke-width:1.33333" />
  </g>
</svg>

<svg xmlns="http://www.w3.org/2000/svg" width="24" height="24" fill="none"><rect width="22" height="22" x="1" y="1" fill="url(#a)" opacity=".813" rx="6.6"/><rect width="18" height="18" x="3" y="2.25" fill="url(#b)" fill-opacity=".875" opacity=".125" rx="4.4"/><rect width="17.5" height="17.5" x="3.25" y="3.25" fill="#CCC" stroke="url(#c)" stroke-width=".5" rx="4.15"/><path fill="url(#d)" fill-opacity=".875" d="M1 7.508A3.008 3.008 0 0 1 4.008 4.5H8.19c1.075 0 2.117.37 2.95 1.048a4.678 4.678 0 0 0 2.95 1.047h5.902A3.008 3.008 0 0 1 23 9.603V15.5a6.6 6.6 0 0 1-6.6 6.6H7.6A6.6 6.6 0 0 1 1 15.5V7.508Z" opacity=".125"/><g opacity=".875"><path fill="url(#e)" d="M1 8.408A3.008 3.008 0 0 1 4.008 5.4H8.19c1.075 0 2.117.37 2.95 1.048a4.678 4.678 0 0 0 2.95 1.047h5.902A3.008 3.008 0 0 1 23 10.503V16.4a6.6 6.6 0 0 1-6.6 6.6H7.6A6.6 6.6 0 0 1 1 16.4V8.408Z"/><path stroke="url(#f)" stroke-linejoin="round" stroke-opacity=".375" stroke-width=".75" d="M22.625 10.503V16.4a6.225 6.225 0 0 1-6.225 6.225H7.6A6.225 6.225 0 0 1 1.375 16.4V8.408a2.633 2.633 0 0 1 2.633-2.633H8.19c.989 0 1.947.34 2.714.964a5.053 5.053 0 0 0 3.187 1.131h5.901a2.633 2.633 0 0 1 2.633 2.633Z"/></g><defs><linearGradient id="a" x1="23" x2="1" y1="1" y2="12" gradientUnits="userSpaceOnUse"><stop stop-color="#5361CB"/><stop offset="1" stop-color="#2F3B9D"/></linearGradient><linearGradient id="b" x1="21" x2="3" y1="4" y2="4" gradientUnits="userSpaceOnUse"><stop stop-opacity=".5"/><stop offset=".89"/><stop offset="1" stop-opacity="0"/></linearGradient><linearGradient id="c" x1="12" x2="11.5" y1="3" y2="8" gradientUnits="userSpaceOnUse"><stop stop-color="#DDD"/><stop offset="1" stop-color="#CCC" stop-opacity="0"/></linearGradient><linearGradient id="d" x1="23" x2="1.012" y1="9" y2="9.521" gradientUnits="userSpaceOnUse"><stop stop-opacity=".5"/><stop offset="1"/></linearGradient><linearGradient id="e" x1="23" x2="1.429" y1="5.4" y2="23.512" gradientUnits="userSpaceOnUse"><stop stop-color="#6C7AD8"/><stop offset="1" stop-color="#273182"/></linearGradient><linearGradient id="f" x1="15" x2="5.5" y1="5.5" y2="19.5" gradientUnits="userSpaceOnUse"><stop stop-color="#97A5FF"/><stop offset="1" stop-color="#141E6F"/></linearGradient><linearGradient id="h" x1="18.439" x2="9.388" y1="8.107" y2="21.115" gradientTransform="matrix(.93304 0 0 .93304 34.84 .865)" gradientUnits="userSpaceOnUse" spreadMethod="pad"><stop offset="0" style="stop-opacity:1;stop-color:#e996b1"/><stop offset="1" style="stop-opacity:1;stop-color:#bc546f"/></linearGradient><clipPath id="g" clipPathUnits="userSpaceOnUse"><path d="M0 0h19v19H0Z"/></clipPath></defs><path d="m8.781 7.352 2-.372c.27-.05.524.157.524.434v1.32a.444.444 0 0 1-.364.434l-1.73.328c-.203.035-.238.074-.238.281v3.774c0 1.215-1.004 1.672-1.672 1.672-.758 0-1.301-.453-1.301-1.098 0-.633.426-1.066 1.344-1.238l.715-.141c.183-.031.277-.156.277-.348l-.027-4.586c0-.25.168-.398.472-.46z" clip-path="url(#g)" opacity=".15" style="fill:#1a1a1a;fill-opacity:1;fill-rule:evenodd;stroke:none" transform="matrix(1.33333 0 0 1.33333 .232 0)"/><path d="m46.172 9.303 2.667-.496a.588.588 0 0 1 .697.578v1.76a.591.591 0 0 1-.479.579l-2.312.437c-.266.047-.318.099-.318.375v5.032c0 1.62-1.339 2.23-2.224 2.23-1.015 0-1.739-.605-1.739-1.465 0-.844.567-1.421 1.79-1.65l.954-.188c.245-.042.37-.208.37-.464l-.037-6.114c0-.333.224-.532.631-.614z" style="fill:url(#h);fill-rule:evenodd;stroke:none;stroke-width:1.33333" transform="translate(-33.768)"/></svg>
